src/components/Icon/icons/filled-chat.svg

<svg xmlns="http://www.w3.org/2000/svg" width="100%" height="100%" viewBox="0 0 20 20" fill="none">
  <g clip-path="url(#clip0_156_3813)">
    <path d="M6.23997 19.0801C5.39997 19.0801 4.56997 18.8801 3.82997 18.5001L2.02997 18.8301C1.78997 18.8801 1.53997 18.8001 1.35997 18.6201C1.18997 18.4501 1.10997 18.2001 1.14997 17.9501L1.48997 16.1501C1.00997 15.2001 0.819974 14.1001 0.959974 13.0401C1.10997 11.8801 1.64997 10.7901 2.47997 9.96007C3.30997 9.13007 4.39997 8.60007 5.54997 8.44007C6.70997 8.29007 7.89997 8.52007 8.90997 9.11007C9.91997 9.69007 10.72 10.6101 11.17 11.6901C11.62 12.7701 11.7 13.9801 11.4 15.1101C11.1 16.2401 10.42 17.2501 9.49997 17.9601C8.56997 18.6701 7.41997 19.0601 6.24997 19.0601L6.23997 19.0801Z" fill="currentColor"/>
    <path d="M18.62 5.74998C18.24 4.72998 17.63 3.78998 16.85 3.03998C16.07 2.27998 15.12 1.68998 14.1 1.33998C13.07 0.979985 11.96 0.859985 10.88 0.969985C9.79997 1.07998 8.73997 1.43998 7.80997 2.00998C6.87997 2.56998 6.07997 3.34999 5.47997 4.24998C4.88997 5.13999 4.49997 6.15998 4.33997 7.19998C4.66997 7.09998 5.00997 7.01998 5.35997 6.97998C5.64997 6.93998 5.94997 6.91998 6.24997 6.91998C7.44997 6.91998 8.62997 7.23998 9.66997 7.82998C10.97 8.57998 11.99 9.74998 12.57 11.13C13.15 12.51 13.24 14.07 12.86 15.51C12.85 15.56 12.82 15.6 12.81 15.65C12.83 15.65 12.85 15.65 12.87 15.65C13.67 15.52 14.43 15.26 15.14 14.89L17.88 15.4C18.12 15.45 18.37 15.37 18.55 15.19C18.72 15.02 18.8 14.77 18.76 14.52L18.25 11.78C18.71 10.9 19 9.92998 19.08 8.93998C19.17 7.85998 19.02 6.74998 18.64 5.72998L18.62 5.74998Z" fill="currentColor"/>
  </g>
  <defs>
    <clipPath id="clip0_156_3813">
      <rect width="20" height="20" fill="white"/>
    </clipPath>
  </defs>
</svg>

<svg xmlns="http://www.w3.org/2000/svg" fill="none" viewBox="0 0 20 20"><g fill="currentColor" clip-path="url(#a)"><path d="M6.24 19.08c-.84 0-1.67-.2-2.41-.58l-1.8.33a.74.74 0 0 1-.67-.21.78.78 0 0 1-.21-.67l.34-1.8c-.48-.95-.67-2.05-.53-3.11a5.344 5.344 0 0 1 4.59-4.6c1.16-.15 2.35.08 3.36.67a5.351 5.351 0 0 1 2.49 6c-.3 1.13-.98 2.14-1.9 2.85-.93.71-2.08 1.1-3.25 1.1z"/><path d="M18.62 5.75a7.3 7.3 0 0 0-1.77-2.71 7.425 7.425 0 0 0-9.04-1.03c-.93.56-1.73 1.34-2.33 2.24A7.4 7.4 0 0 0 4.34 7.2c.33-.1.67-.18 1.02-.22.29-.04.59-.06.89-.06 1.2 0 2.38.32 3.42.91 1.3.75 2.32 1.92 2.9 3.3s.67 2.94.29 4.38c-.01.05-.04.09-.05.14h.06c.8-.13 1.56-.39 2.27-.76l2.74.51c.24.05.49-.03.67-.21.17-.17.25-.42.21-.67l-.51-2.74c.46-.88.75-1.85.83-2.84.09-1.08-.06-2.19-.44-3.21z"/></g><defs><clipPath id="a"><path fill="#fff" d="M0 0h20v20H0z"/></clipPath></defs></svg>
